svg/Octicons/quote.svg

<svg xmlns="http://www.w3.org/2000/svg" viewBox="0 0 640 1024"><path d="m0 512v256h256v-256h-128c0 0 0-128 128-128v-128c0 0-256 0-256 256m640-128v-128c0 0-256 0-256 256v256h256v-256h-128c0 0 0-128 128-128"/></svg>

<svg height="1024" width="640" xmlns="http://www.w3.org/2000/svg">
  <path d="M0 512v256h256V512H128c0 0 0-128 128-128V256C256 256 0 256 0 512zM640 384V256c0 0-256 0-256 256v256h256V512H512C512 512 512 384 640 384z" />
</svg>
